lib/healthicons/icons/outline/devices/odontology.svg

<svg fill="none" height="48" viewBox="0 0 48 48" width="48" xmlns="http://www.w3.org/2000/svg"><path clip-rule="evenodd" d="m22.2544 12.6476c.7262.622 1.7908.6429 2.5408.0505l.0024-.0019.0055-.0042c.0093-.0072.0262-.0201.0504-.0383.0484-.0365.1259-.0936.2296-.1668.2079-.1467.5186-.3561.9105-.5913.7921-.4756 1.8737-1.0318 3.0788-1.4052 2.3929-.74154 4.9293-.70533 6.9938 1.6885 1.2454 1.444 1.7653 2.8404 1.898 4.211.0964.9957-.0061 2.0366-.2565 3.1412-1.3209-.9629-2.9479-1.5311-4.7077-1.5311-4.4183 0-8 3.5817-8 8 0 4.3582 3.485 7.9025 7.8203 7.998-.3251.9259-.6193 1.572-.9274 2.0873-.3635.6081-.7836 1.0971-1.4314 1.6828-.3266-.3095-.7396-.8043-1.2848-1.5052-.0859-.1104-.1749-.2258-.2668-.3447l-.0001-.0002c-.562-.7279-1.2279-1.5904-1.9068-2.2791-.7169-.7271-1.9234-1.774-3.4992-1.7692-1.5686.0048-2.7783 1.035-3.5101 1.7672-.6889.6893-1.3643 1.5516-1.9344 2.2795-.0927.1184-.1827.2333-.2694.3433-.5566.7053-.9773 1.2022-1.3099 1.5115-1.6113-1.5741-2.4996-3.8083-3.5208-7.9654-.2309-.9397-.5836-2.0717-.948-3.2407v-.0001c-.1045-.3352-.2099-.6735-.3136-1.0111-.4809-1.5647-.9584-3.2121-1.2857-4.8388-.68725-3.4157-.55751-6.0302.7172-7.5778 1.695-2.0579 3.3797-2.9941 5.0017-3.1216 1.629-.12816 3.6608.5222 6.1236 2.6319zm12.7572 21.0974c-1.0213 3.2343-1.8655 4.3861-3.7242 5.956-1.1988 1.0125-2.5508-.7364-3.9736-2.5771-1.2326-1.5946-2.5184-3.2581-3.804-3.2542-1.3068.004-2.6133 1.6701-3.8633 3.2641-1.4417 1.8386-2.8082 3.5812-4.0134 2.5672-2.4335-2.0478-3.5007-4.8773-4.6162-9.4181-.2147-.8742-.5414-1.9227-.9016-3.079-1.51085-4.8495-3.61252-11.5956-.52996-15.3382 3.81756-4.63488 8.56206-5.36977 13.97026-.7371 0 0 8.4579-6.71105 14.0252-.2559 2.8993 3.3618 2.7788 6.8444 1.7728 10.2653 1.0327 1.3476 1.6464 3.0331 1.6464 4.862 0 3.7235-2.5438 6.8529-5.9884 7.745zm3.9884-7.745c0 3.3137-2.6863 6-6 6s-6-2.6863-6-6 2.6863-6 6-6 6 2.6863 6 6zm-6-4c-.5523 0-1 .4477-1 1v2h-2c-.5523 0-1 .4477-1 1s.4477 1 1 1h2v2c0 .5523.4477 1 1 1s1-.4477 1-1v-2h2c.5523 0 1-.4477 1-1s-.4477-1-1-1h-2v-2c0-.5523-.4477-1-1-1z" fill="#333" fill-rule="evenodd"/></svg>

<svg width="48" height="48" viewBox="0 0 48 48" fill="none" xmlns="http://www.w3.org/2000/svg">
<path fill-rule="evenodd" clip-rule="evenodd" d="M22.2544 12.6476C22.9806 13.2696 24.0452 13.2905 24.7952 12.6981L24.7976 12.6962L24.8031 12.692C24.8124 12.6848 24.8293 12.6719 24.8535 12.6537C24.9019 12.6172 24.9794 12.5601 25.0831 12.4869C25.291 12.3402 25.6017 12.1308 25.9936 11.8956C26.7857 11.42 27.8673 10.8638 29.0724 10.4904C31.4653 9.74886 34.0017 9.78507 36.0662 12.1789C37.3116 13.6229 37.8315 15.0193 37.9642 16.3899C38.0606 17.3856 37.9581 18.4265 37.7077 19.5311C36.3868 18.5682 34.7598 18 33 18C28.5817 18 25 21.5817 25 26C25 30.3582 28.485 33.9025 32.8203 33.998C32.4952 34.9239 32.201 35.57 31.8929 36.0853C31.5294 36.6934 31.1093 37.1824 30.4615 37.7681C30.1349 37.4586 29.7219 36.9638 29.1767 36.2629C29.0908 36.1525 29.0018 36.0371 28.9099 35.9182L28.9098 35.918L28.9098 35.918C28.3478 35.1901 27.6819 34.3276 27.003 33.6389C26.2861 32.9118 25.0796 31.8649 23.5038 31.8697C21.9352 31.8745 20.7255 32.9047 19.9937 33.6369C19.3048 34.3262 18.6294 35.1885 18.0593 35.9164C17.9666 36.0348 17.8766 36.1497 17.7899 36.2597C17.2333 36.965 16.8126 37.4619 16.48 37.7712C14.8687 36.1971 13.9804 33.9629 12.9592 29.8058C12.7283 28.8661 12.3756 27.7341 12.0112 26.5651L12.0112 26.565C11.9067 26.2298 11.8013 25.8915 11.6976 25.5539C11.2167 23.9892 10.7392 22.3418 10.4119 20.7151C9.72465 17.2994 9.85439 14.6849 11.1291 13.1373C12.8241 11.0794 14.5088 10.1432 16.1308 10.0157C17.7598 9.88754 19.7916 10.5379 22.2544 12.6476ZM35.0116 33.745C33.9903 36.9793 33.1461 38.1311 31.2874 39.701C30.0886 40.7135 28.7366 38.9646 27.3138 37.1239C26.0812 35.5293 24.7954 33.8658 23.5098 33.8697C22.203 33.8737 20.8965 35.5398 19.6465 37.1338C18.2048 38.9724 16.8383 40.715 15.6331 39.701C13.1996 37.6532 12.1324 34.8237 11.0169 30.2829C10.8022 29.4087 10.4755 28.3602 10.1153 27.2039C8.60445 22.3544 6.50278 15.6083 9.58534 11.8657C13.4029 7.23082 18.1474 6.49593 23.5556 11.1286C23.5556 11.1286 32.0135 4.41755 37.5808 10.8727C40.4801 14.2345 40.3596 17.7171 39.3536 21.138C40.3863 22.4856 41 24.1711 41 26C41 29.7235 38.4562 32.8529 35.0116 33.745ZM39 26C39 29.3137 36.3137 32 33 32C29.6863 32 27 29.3137 27 26C27 22.6863 29.6863 20 33 20C36.3137 20 39 22.6863 39 26ZM33 22C32.4477 22 32 22.4477 32 23V25H30C29.4477 25 29 25.4477 29 26C29 26.5523 29.4477 27 30 27H32V29C32 29.5523 32.4477 30 33 30C33.5523 30 34 29.5523 34 29V27H36C36.5523 27 37 26.5523 37 26C37 25.4477 36.5523 25 36 25H34V23C34 22.4477 33.5523 22 33 22Z" fill="#333333"/>
</svg>
